packages/swarm-icons/src/icons/line/Photo.svg

<svg xmlns="http://www.w3.org/2000/svg" width="24" height="24" viewBox="0 0 24 24">
  <path fill="#757575" d="M3,13.9168468 L3.25731891,14.0712962 C6.42307274,15.9714619 9.20354635,15.9714619 11.7000901,14.0999324 C14.4696328,12.0237498 17.6009571,11.9727464 21,13.920345 L21,5 C21,3.8954305 20.1045695,3 19,3 L5,3 C3.8954305,3 3,3.8954305 3,5 L3,13.9168468 Z M3,15.079655 L3,19 C3,20.1045695 3.8954305,21 5,21 L19,21 C20.1045695,21 21,20.1045695 21,19 L21,15.0831532 L20.7426811,14.9287038 C17.5769273,13.0285381 14.7964537,13.0285381 12.2999099,14.9000676 C9.53036718,16.9762502 6.39904287,17.0272536 3,15.079655 Z M5,2 L19,2 C20.6568542,2 22,3.34314575 22,5 L22,19 C22,20.6568542 20.6568542,22 19,22 L5,22 C3.34314575,22 2,20.6568542 2,19 L2,5 C2,3.34314575 3.34314575,2 5,2 Z M8,10 C9.1045695,10 10,9.1045695 10,8 C10,6.8954305 9.1045695,6 8,6 C6.8954305,6 6,6.8954305 6,8 C6,9.1045695 6.8954305,10 8,10 Z M8,11 C6.34314575,11 5,9.65685425 5,8 C5,6.34314575 6.34314575,5 8,5 C9.65685425,5 11,6.34314575 11,8 C11,9.65685425 9.65685425,11 8,11 Z"/>
</svg>

<svg xmlns="http://www.w3.org/2000/svg" width="24" height="24"><path fill="#757575" d="M3 13.917l.257.154c3.166 1.9 5.947 1.9 8.443.029 2.77-2.076 5.901-2.127 9.3-.18V5a2 2 0 00-2-2H5a2 2 0 00-2 2v8.917zm0 1.163V19a2 2 0 002 2h14a2 2 0 002-2v-3.917l-.257-.154c-3.166-1.9-5.947-1.9-8.443-.029-2.77 2.076-5.901 2.127-9.3.18zM5 2h14a3 3 0 013 3v14a3 3 0 01-3 3H5a3 3 0 01-3-3V5a3 3 0 013-3zm3 8a2 2 0 100-4 2 2 0 000 4zm0 1a3 3 0 110-6 3 3 0 010 6z"/></svg>
